X:1
T:Violin Concerto, Op. 34
T:III. Allegro
C:Oscar Rieding
%%score ( 1 2 )
L:1/8
Q:1/4=140
M:4/4
K:G
V:1 treble nm="Violin" snm="Vln."
V:2 treble 
V:1
"^Allegro""_Piano" z8 | z8 | z8 | z4 z2!p! D2 | (GF)GA (BA)Bc | d2!<(! (^ce d2) (b2!<)! | %6
!mf! a2)!<(! (g2 f2 g2)!<)! |!f! (a4 e2) (ag) |!>(! (fe)dc (Bc)BA!>)! | G2 B2 e2 (dB) | %10
 (A!<(!B)^cd (ef)ge!<)! | d2!>(! D2 E2 F2!>)! |!p! (GF)GA (BA)B=c | d2!<(! (^ce d2) (b2!<)! | %14
!mf! a2)!<(! (g2 f2 g2)!<)! |!f! (a4 e2) (ag) |!>(! (fe)dc (dc)BA!>)! | G2 =F2 E2 (ec) | %18
 (Bc)d!<(!^c (d^fba)!<)! |!f! (a4 g2) z2 ||!p! (vG3 F) (EFGE) | (A3 G)!<(! (FGAF)!<)! | %22
!mf! (G2 B2) (e2 B2) | (e3 c) c4 | (B3 ^c)!<(! (^dBcd)!<)! |!f! (e3 B) (=d=cBc) | (e3 B) (dcBA) | %27
!>(! (B2 G2) (F2 A2)!>)! |!p! (G3 F) (EFGE) | (A3!<(! G) (FGAF)!<)! |!mf! (G2 B2) (e2 B2) | %31
 (d3 ^c)!<(! c4!<)! |!f! (f3 ^c) (edcd) | (f3 ^c) (dcdf) | (b2 a2) (^g2 f2) | %35
 (a^gfe)!>(! (gf)ed!>)! |!mf! (^ce)a^g (ba)=ge | (df)a^g (ba)fd | (^cb)(ac) (Ba)(=gB) | %39
 (Ag)(fA) ^cBAG | (FA)d^c (ed)=cA | (GB)d^c (ed)BG | (Fe)(dF) (Ed)(=cE) | %43
!>(! (Dc)(BD) =C2 A2!>)! ||!p! (GF)GA (BA)Bc |!<(! d2 (^ce d2) (b2!<)! | %46
!mf! a2)!<(! (g2 f2 g2)!<)! |!f! (a4 e2) (ag) |!>(! (fe)dc (Bc)BA!>)! | G2 B2 e2 (dB) | %50
!<(! (AB)^cd (ef)ge!<)! |!>(! d2 D2 E2 F2!>)! |!p! (GF)GA (BA)B=c | d2!<(! (^ce d2) (b2!<)! | %54
!mf! a2) (g2!<(! f2 g2)!<)! |!f! (a4 e2) (ag) | (fe)!>(!dc (dc)BA!>)! | G2 =F2 E2 (ec) | %58
 (Bc)d^c!<(! (d^fba)!<)! |!f! (a4 g2) (ba) | !>!g2 (bg) !>!^f2 (bf) | !>!e2 a2 g2 e2 | %62
 (de)dB (cd)cA | (Bc)de d2 vbua | !>!g2 (bg) !>!^f2 (bf) | !>!e2 a2 g2 e2 | (dc)BA (BA)GF | %67
 (AG)FE (DCB,A,) |!f! (G,DBg) (gBDG,) | (G,DBb) (bBDG,) | (G,DBg) (gBDG,) | (G,DBb) (bBDG,) | %72
 G,2 z2 v[DBg]2 z2 | vG,8 |] %74
V:2
 [Dd][^D^d][Ee][=E=e] [F^f][Gg][^G^g][Aa] | [_B_b]4 [eg_be']4 | [dg=bd']4 [eg_b^c']4 | %3
 [dfa=c']2 z2 x2 x2 | x8 | x8 | x8 | x8 | x8 | x8 | x8 | x8 | x8 | x8 | x8 | x8 | x8 | x8 | x8 | %19
 x8 || x8 | x8 | x8 | x8 | x8 | x8 | x8 | x8 | x8 | x8 | x8 | x8 | x8 | x8 | x8 | x8 | x8 | x8 | %38
 x8 | x8 | x8 | x8 | x8 | x8 || x8 | x8 | x8 | x8 | x8 | x8 | x8 | x8 | x8 | x8 | x8 | x8 | x8 | %57
 x8 | x8 | x8 | x8 | x8 | x8 | x8 | x8 | x8 | x8 | x8 | x8 | x8 | x8 | x8 | x8 | x8 |] %74

